X:1
T:Throw Away The Keys
L:1/8
M:4/4
I:linebreak $
K:D
V:1 treble 
V:1
|: A2 AB defa | a2 fd efdB | A3 B defe | dBAF EFDB | A3 B defa | a2 fd efdB |$ A3 B defe | %7
 dBAF EFDB |: a2 af defa | a2 fd efdB | a3 f defe | dBAF EFDB |$ a3 f defa | a2 fd efdB | %14
 A3 B defe | dBAF EFDB || %16
